src/lib/packages/icons/src/assets/line/arrow-left-arrow-right.svg

<svg width="24" height="24" viewBox="0 0 24 24" fill="none" xmlns="http://www.w3.org/2000/svg">
<path d="M2.47009 7.53005C2.40109 7.46105 2.34622 7.37791 2.30822 7.28591C2.23222 7.10291 2.23222 6.89591 2.30822 6.71291C2.34622 6.62091 2.40109 6.53802 2.47009 6.46902L6.47009 2.46902C6.76309 2.17602 7.23812 2.17602 7.53112 2.46902C7.82412 2.76202 7.82412 3.23705 7.53112 3.53005L4.81115 6.25002H17.0001C17.4141 6.25002 17.7501 6.58602 17.7501 7.00002C17.7501 7.41402 17.4141 7.75002 17.0001 7.75002H4.81115L7.53112 10.47C7.82412 10.763 7.82412 11.238 7.53112 11.531C7.38512 11.677 7.19309 11.751 7.00109 11.751C6.80909 11.751 6.61706 11.678 6.47106 11.531L2.47009 7.53005ZM21.692 16.7129C21.654 16.6209 21.5991 16.538 21.5301 16.469L17.5301 12.469C17.2371 12.176 16.7621 12.176 16.4691 12.469C16.1761 12.762 16.1761 13.2371 16.4691 13.5301L19.1891 16.25H7.00012C6.58612 16.25 6.25012 16.586 6.25012 17C6.25012 17.414 6.58612 17.75 7.00012 17.75H19.1891L16.4691 20.47C16.1761 20.763 16.1761 21.238 16.4691 21.531C16.6151 21.677 16.8071 21.751 16.9991 21.751C17.1911 21.751 17.3832 21.678 17.5292 21.531L21.5292 17.531C21.5982 17.462 21.653 17.3791 21.691 17.2871C21.768 17.1031 21.768 16.8969 21.692 16.7129Z" fill="currentColor"/>
</svg>

<svg xmlns="http://www.w3.org/2000/svg" width="24" height="24" fill="none"><path fill="currentColor" d="M2.47 7.53a.75.75 0 0 1-.162-.817.748.748 0 0 1 .162-.244l4-4A.75.75 0 1 1 7.531 3.53l-2.72 2.72h12.19a.75.75 0 0 1 0 1.5H4.81l2.72 2.72a.75.75 0 0 1-1.06 1.061l-4-4.001Zm19.222 9.183a.748.748 0 0 0-.162-.244l-4-4a.75.75 0 1 0-1.06 1.061l2.72 2.72H7a.75.75 0 0 0 0 1.5h12.19l-2.72 2.72a.75.75 0 0 0 1.06 1.061l4-4a.747.747 0 0 0 .163-.818Z"/></svg>
